www/assets/icons/kitesurfing.svg

<svg xmlns="http://www.w3.org/2000/svg" width="24" height="24" viewBox="0 0 24 24" fill='currentColor'><path d="M6 3c0-1.1.9-2 2-2s2 .9 2 2-.9 2-2 2-2-.9-2-2m14.06-2h-2.12L15.5 3.44l1.06 1.06zM22 23v-2h-1c-1.04 0-2.08-.35-3-1-1.83 1.3-4.17 1.3-6 0-1.83 1.3-4.17 1.3-6 0-.91.65-1.96 1-3 1H2v2h1c1.03 0 2.05-.25 3-.75 1.89 1 4.11 1 6 0 1.89 1 4.11 1 6 0 .95.5 1.97.75 3 .75zm-1-9.72c0 1.44-2.19 3.62-5.04 5.58-.31.09-.63.14-.96.14-1.2 0-2.27-.66-3-1.5-.73.84-1.8 1.5-3 1.5-.94 0-1.81-.41-2.49-.99.46-.39.96-.78 1.49-1.17l-1.55-2.97A4.06 4.06 0 0 1 6 12V8c0-1.1.9-2 2-2h3c1.38 0 2.63-.56 3.54-1.46l1.41 1.41A7.02 7.02 0 0 1 11 8H9.6v3.5h2.8l1.69 1.88c1.95-.84 3.77-1.38 5.06-1.38.84 0 1.85.25 1.85 1.28m-8.8.99-.7-.77-2.5.1.83 2.01c.59-.38 1.81-1.06 2.37-1.34"/></svg>

<svg width="24" height="24" viewBox="0 0 24 24" xmlns="http://www.w3.org/2000/svg" fill='currentColor'><path d="M6 3C6 1.9 6.9 1 8 1C9.1 1 10 1.9 10 3C10 4.1 9.1 5 8 5C6.9 5 6 4.1 6 3ZM20.06 1H17.94L15.5 3.44L16.56 4.5L20.06 1ZM22 23V21H21C19.96 21 18.92 20.65 18 20C16.17 21.3 13.83 21.3 12 20C10.17 21.3 7.83 21.3 6 20C5.09 20.65 4.04 21 3 21H2V23H3C4.03 23 5.05 22.75 6 22.25C7.89 23.25 10.11 23.25 12 22.25C13.89 23.25 16.11 23.25 18 22.25C18.95 22.75 19.97 23 21 23H22ZM21 13.28C21 14.72 18.81 16.9 15.96 18.86C15.65 18.95 15.33 19 15 19C13.8 19 12.73 18.34 12 17.5C11.27 18.34 10.2 19 9 19C8.06 19 7.19 18.59 6.51 18.01C6.97 17.62 7.47 17.23 8 16.84L6.45 13.87C6.15 13.3 6 12.64 6 12V8C6 6.9 6.9 6 8 6H11C12.38 6 13.63 5.44 14.54 4.54L15.95 5.95C14.68 7.21 12.93 8 11 8H9.6V11.5H12.4L14.09 13.38C16.04 12.54 17.86 12 19.15 12C19.99 12 21 12.25 21 13.28ZM12.2 14.27L11.5 13.5L9 13.6L9.83 15.61C10.42 15.23 11.64 14.55 12.2 14.27Z"/></svg>
